epam-assets/icon-sources/18/editor-format_superscript.svg

<svg width="18" height="18" viewBox="0 0 18 18" fill="none" xmlns="http://www.w3.org/2000/svg">
<g id="18/editor-format_superscript">
<path id="icon" fill-rule="evenodd" clip-rule="evenodd" d="M11.25 5.5575L7.8075 9L11.25 12.4425L10.1925 13.5L6.75 10.0575L3.3075 13.5L2.25 12.4425L5.6925 9L2.25 5.5575L3.3075 4.5L6.75 7.9425L10.1925 4.5L11.25 5.5575ZM15.6375 6.75H11.9775V6L12.645 5.385C13.215 4.905 13.635 4.5 13.92 4.1625C14.1975 3.8325 14.34 3.525 14.3475 3.24C14.355 3.03 14.2875 2.85 14.145 2.715C14.01 2.5725 13.7925 2.505 13.5 2.4975C13.2675 2.505 13.065 2.55 12.87 2.625L12.375 2.9175L12.0375 2.04C12.24 1.875 12.48 1.7475 12.7725 1.6425C13.065 1.5375 13.3875 1.5 13.74 1.5C14.325 1.5 14.775 1.65 15.075 1.9575C15.375 2.25 15.54 2.655 15.54 3.135C15.5325 3.555 15.3975 3.945 15.135 4.2975C14.88 4.6575 14.565 4.995 14.1825 5.3175L13.7025 5.7075V5.7225H15.6375V6.75Z" fill="#6C6F80"/>
</g>
</svg>

<svg xmlns="http://www.w3.org/2000/svg" width="18" height="18" fill="none" viewBox="0 0 18 18">
  <path fill="#6C6F80" fill-rule="evenodd" d="M11.25 5.558 7.808 9l3.442 3.443-1.057 1.057-3.443-3.443L3.308 13.5 2.25 12.443 5.692 9 2.25 5.558 3.308 4.5 6.75 7.942 10.193 4.5l1.057 1.058Zm4.387 1.192h-3.66V6l.668-.615c.57-.48.99-.885 1.275-1.223.277-.33.42-.637.428-.922a.663.663 0 0 0-.203-.525c-.135-.143-.352-.21-.645-.217a1.884 1.884 0 0 0-.63.127l-.495.292-.338-.877c.203-.165.443-.292.736-.397.292-.105.614-.143.967-.143.585 0 1.035.15 1.335.458.3.292.465.697.465 1.177a1.97 1.97 0 0 1-.405 1.163c-.255.36-.57.697-.953 1.02l-.48.39v.014h1.935V6.75Z" clip-rule="evenodd"/>
</svg>
